lib/svgs/team-bulb.svg

<?xml version="1.0" encoding="UTF-8" standalone="no"?>
<svg width="20px" height="20px" viewBox="0 0 20 20" version="1.1" xmlns="http://www.w3.org/2000/svg" xmlns:xlink="http://www.w3.org/1999/xlink">
    <defs></defs>
    <g id="Icons" stroke="none" stroke-width="1" fill="none" fill-rule="evenodd">
        <g id="Web" transform="translate(-289.000000, -2392.000000)" fill="#000000">
            <g id="team/team-bulb" transform="translate(289.000000, 2392.000000)">
                <path d="M11.75,16.75 L9.25,16.75 C8.875,16.75 8.625,17 8.625,17.375 C8.625,17.75 8.875,18 9.25,18 L11.75,18 C12.125,18 12.375,17.75 12.375,17.375 C12.375,17 12.125,16.75 11.75,16.75 L11.75,16.75 L11.75,16.75 M10.5,6.125 C8.0625,6.125 6.125,8.0625 6.125,10.5 C6.125,12.1875 7.125,13.75 8.625,14.4375 L8.625,15.5 C8.625,15.875 8.875,16.125 9.25,16.125 L11.75,16.125 C12.125,16.125 12.375,15.875 12.375,15.5 L12.375,14.4375 C13.875,13.75 14.875,12.1875 14.875,10.5 C14.875,8.0625 12.9375,6.125 10.5,6.125 L10.5,6.125 L10.5,6.125 M4.875,9.875 L3.625,9.875 C3.25,9.875 3,10.125 3,10.5 C3,10.875 3.25,11.125 3.625,11.125 L4.875,11.125 C5.25,11.125 5.5,10.875 5.5,10.5 C5.5,10.125 5.25,9.875 4.875,9.875 L4.875,9.875 L4.875,9.875 M6.9375,6.9375 C7.1875,6.6875 7.1875,6.3125 6.9375,6.0625 L6.0625,5.1875 C5.8125,4.9375 5.4375,4.9375 5.1875,5.1875 C4.9375,5.4375 4.9375,5.8125 5.1875,6.0625 L6.0625,6.9375 C6.1875,7.0625 6.375,7.125 6.5,7.125 C6.625,7.125 6.8125,7.0625 6.9375,6.9375 L6.9375,6.9375 L6.9375,6.9375 M10.5,5.5 C10.875,5.5 11.125,5.25 11.125,4.875 L11.125,3.625 C11.125,3.25 10.875,3 10.5,3 C10.125,3 9.875,3.25 9.875,3.625 L9.875,4.875 C9.875,5.25 10.125,5.5 10.5,5.5 L10.5,5.5 L10.5,5.5 M15.8125,5.1875 C15.5625,4.9375 15.1875,4.9375 14.9375,5.1875 L14.0625,6.0625 C13.8125,6.3125 13.8125,6.6875 14.0625,6.9375 C14.1875,7.0625 14.375,7.125 14.5,7.125 C14.625,7.125 14.8125,7.0625 14.9375,6.9375 L15.8125,6.0625 C16.0625,5.8125 16.0625,5.4375 15.8125,5.1875 L15.8125,5.1875 L15.8125,5.1875 M17.375,9.875 L16.125,9.875 C15.75,9.875 15.5,10.125 15.5,10.5 C15.5,10.875 15.75,11.125 16.125,11.125 L17.375,11.125 C17.75,11.125 18,10.875 18,10.5 C18,10.125 17.75,9.875 17.375,9.875 L17.375,9.875 L17.375,9.875" id="Shape"></path>
            </g>
        </g>
    </g>
</svg>

<svg xmlns="http://www.w3.org/2000/svg" viewBox="0 0 20 20">
    <path fill="#000" fill-rule="evenodd" d="M11.75 16.75h-2.5c-.375 0-.625.25-.625.625s.25.625.625.625h2.5c.375 0 .625-.25.625-.625s-.25-.625-.625-.625M10.5 6.125A4.348 4.348 0 0 0 6.125 10.5c0 1.688 1 3.25 2.5 3.938V15.5c0 .375.25.625.625.625h2.5c.375 0 .625-.25.625-.625v-1.063c1.5-.687 2.5-2.25 2.5-3.937A4.348 4.348 0 0 0 10.5 6.125m-5.625 3.75h-1.25c-.375 0-.625.25-.625.625s.25.625.625.625h1.25c.375 0 .625-.25.625-.625s-.25-.625-.625-.625m2.063-2.938a.604.604 0 0 0 0-.875l-.875-.875a.604.604 0 0 0-.875 0 .604.604 0 0 0 0 .875l.875.875a.675.675 0 0 0 .437.188.675.675 0 0 0 .438-.188M10.5 5.5c.375 0 .625-.25.625-.625v-1.25c0-.375-.25-.625-.625-.625s-.625.25-.625.625v1.25c0 .375.25.625.625.625m5.313-.313a.604.604 0 0 0-.876 0l-.874.875a.604.604 0 0 0 0 .875.675.675 0 0 0 .437.188.675.675 0 0 0 .438-.188l.874-.875a.604.604 0 0 0 0-.875m1.563 4.688h-1.25c-.375 0-.625.25-.625.625s.25.625.625.625h1.25c.375 0 .625-.25.625-.625s-.25-.625-.625-.625"/>
</svg>
